public/images/w3c.svg

<svg viewBox="0 0 110 75" xmlns="http://www.w3.org/2000/svg"><g fill="none" fill-rule="evenodd"><path d="m0 0h290v75h-290z" fill="#015a9c"/><g fill="#fff" fill-rule="nonzero" transform="translate(0 16)"><path d="m21.759911 0 7.7908193 26.78023 7.7908192-26.78023h5.6412079 15.4815308v2.6616102l-7.9531562 13.8524091c2.7935478.9068076 4.9066333 2.5549269 6.3392566 4.9443581 1.4326233 2.3907989 2.1496114 5.1960211 2.1496114 8.4184022 0 3.9855766-1.0484259 7.335157-3.143925 10.0501088-2.095499 2.7149518-4.8092312 4.0731116-8.1398436 4.0731116-2.5081054 0-4.6928897-.8055953-6.5543531-2.4167858-1.8628161-1.6111906-3.2413271-3.7927262-4.1368858-6.5459745l4.4047418-1.8464408c.6452892 1.6658999 1.4962052 2.9789244 2.552748 3.9377059 1.0565428.9601492 2.3011258 1.4388561 3.7337491 1.4388561 1.5043221 0 2.7759613-.8507305 3.8149176-2.5521915 1.0389562-1.7028287 1.5584344-3.7475909 1.5584344-6.1397575 0-2.6438297-.556004-4.6899596-1.6653062-6.1383898-1.2905785-1.701461-3.3143788-2.5535592-6.0727536-2.5535592h-2.1482585v-2.6069009l7.5216105-13.14665836h-9.0800449l-.5167726.88902704-11.0429688 37.67833382h-.5370646l-8.060028-27.268511-8.0586752 27.268511h-.5370646l-12.8922569-43.9972645h5.6412079l7.7908192 26.78023 5.2651274-18.03357162-2.5784514-8.74665838z"/><path d="m87.9881579 0c-1.0776316 0-2.0447368.38822175-2.7776316 1.1330811-.7776316.78960355-1.2105263 1.81082415-1.2105263 2.8662609s.4118421 2.03322915 1.1671053 2.8004606c.7671052.7777595 1.7552631 1.2001974 2.8223684 1.2001974 1.043421 0 2.0552631-.4224379 2.843421-1.18835335.7552632-.7330153 1.1671053-1.7108077 1.1671053-2.81098865 0-1.0672808-.4223684-2.06612929-1.1552632-2.81098865-.768421-.7790755-1.768421-1.18966935-2.8565789-1.18966935zm3.4776316 4.03355815c0 .92252015-.356579 1.777924-1.0105263 2.41092285-.6894737.667215-1.5447369 1.0225366-2.4894737 1.0225366-.8881579 0-1.7657895-.36584964-2.4210527-1.03306465-.6552631-.667215-1.0223684-1.52261885-1.0223684-2.43329495s.3776316-1.8002961 1.0552632-2.4885672c.6328947-.6448429 1.4881579-.98832044 2.4210526-.98832044.9552632 0 1.8105263.3566376 2.4776316 1.03306465.6447368.64352689.9894737 1.50945879.9894737 2.47672314zm-3.3671053-2.3780227h-1.7105263v4.5336404h.8552632v-1.9332127h.8447368l.9223684 1.9332127h.9552632l-1.0118421-2.0661293c.6552631-.1342326 1.0328947-.5777266 1.0328947-1.2225695 0-.8225037-.6210526-1.2449416-1.8881579-1.2449416zm-.1552631.5553545c.8 0 1.1657894.222405 1.1657894.7777595 0 .5329824-.3657894.72248725-1.1447368.72248725h-.7223684v-1.50024675z"/><path d="m82.1371237 0 .8628763 5.91408-3.051978 6.588s-1.1717758-2.79504-3.1183532-4.3416c-1.6402307-1.3032-2.7086145-1.58688-4.3794799-1.19808-2.1457027.49968-4.5786053 3.39408-5.6406069 6.9624-1.2700619 4.2696-1.2828264 6.336-1.3275019 8.23392-.0714809 3.04272.353575 4.84128.353575 4.84128s-1.8533969-3.86784-1.8355267-9.5328c.011488-4.04352.5756763-7.70976 2.2337773-11.32848 1.4589757-3.18096 3.6276544-5.0904 5.5525322-5.31504 1.9899765-.23184 3.5625557.8496 4.7777306 2.02032 1.2764441 1.22976 2.5656528 3.91824 2.5656528 3.91824z"/><path d="m82.2301013 31.8236212s-1.3384588 2.5673605-2.1716715 3.5567933c-.834479.9894327-2.3261577 2.7318129-4.1685962 3.603003s-2.8086107 1.0356425-4.6295225.8480852c-1.8196454-.1875573-3.5101302-1.3183375-4.1027496-1.789949s-2.1070912-1.8606229-2.963097-3.1558556c-.8560057-1.2952327-2.1944645-3.8856981-2.1944645-3.8856981s.7458394 2.5959019 1.213097 3.6981408c.2684515.6347048 1.0940665 2.5741561 2.2653762 4.2621718 1.0928003 1.5752096 3.2150869 4.2866359 6.4403039 4.8982358 3.2252171.612959 5.4412084-.9418639 5.989508-1.3183376s1.7044139-1.4161936 2.4363242-2.2561241c.7635673-.8766266 1.4866136-1.9951749 1.8867583-2.6665756.2925108-.48928.7686324-1.4841492.7686324-1.4841492z"/></g></g></svg>

<?xml version="1.0" encoding="UTF-8" standalone="no"?>
<svg
   xmlns:dc="http://purl.org/dc/elements/1.1/"
   xmlns:cc="http://creativecommons.org/ns#"
   xmlns:rdf="http://www.w3.org/1999/02/22-rdf-syntax-ns#"
   xmlns:svg="http://www.w3.org/2000/svg"
   xmlns="http://www.w3.org/2000/svg"
   xmlns:sodipodi="http://sodipodi.sourceforge.net/DTD/sodipodi-0.dtd"
   xmlns:inkscape="http://www.inkscape.org/namespaces/inkscape"
   inkscape:version="1.0 (4035a4f, 2020-05-01)"
   height="44"
   width="91.968277"
   sodipodi:docname="w3c.svg"
   id="svg110"
   version="1.1"
   viewBox="0 0 91.968277 44">
  <metadata
     id="metadata116">
    <rdf:RDF>
      <cc:Work
         rdf:about="">
        <dc:format>image/svg+xml</dc:format>
        <dc:type
           rdf:resource="http://purl.org/dc/dcmitype/StillImage" />
        <dc:title></dc:title>
      </cc:Work>
    </rdf:RDF>
  </metadata>
  <defs
     id="defs114" />
  <sodipodi:namedview
     inkscape:current-layer="g108"
     inkscape:window-maximized="1"
     inkscape:window-y="23"
     inkscape:window-x="0"
     inkscape:cy="9.7983027"
     inkscape:cx="179.62778"
     inkscape:zoom="3.23"
     fit-margin-bottom="0"
     fit-margin-right="0"
     fit-margin-left="0"
     fit-margin-top="0"
     showgrid="false"
     id="namedview112"
     inkscape:window-height="1005"
     inkscape:window-width="1680"
     inkscape:pageshadow="2"
     inkscape:pageopacity="0"
     guidetolerance="10"
     gridtolerance="10"
     objecttolerance="10"
     borderopacity="1"
     bordercolor="#666666"
     pagecolor="#ffffff" />
  <g
     transform="matrix(0.99965517,0,0,1,0,-16)"
     id="g108"
     fill-rule="evenodd"
     fill="none">
    <path
       style="stroke-width:0.436869"
       id="path96"
       fill="#015a9c"
       d="M -0.23120815,15.789474 H 92.718346 V 60.448916 H -0.23120815 Z" />
    <g
       id="g106"
       transform="translate(0,16)"
       fill-rule="nonzero"
       fill="#ffffff">
      <path
         id="path98"
         d="M 21.759911,0 29.55073,26.78023 37.341549,0 h 5.641208 15.481531 V 2.6616102 L 50.511132,16.514019 c 2.793548,0.906808 4.906633,2.554927 6.339257,4.944358 C 58.283012,23.849176 59,26.654398 59,29.87678 59,33.862356 57.951574,37.211937 55.856075,39.926888 53.760576,42.64184 51.046844,44 47.716231,44 45.208126,44 43.023342,43.194405 41.161878,41.583214 39.299062,39.972024 37.920551,37.790488 37.024992,35.03724 l 4.404742,-1.846441 c 0.645289,1.6659 1.496205,2.978924 2.552748,3.937706 1.056543,0.960149 2.301126,1.438856 3.733749,1.438856 1.504322,0 2.775962,-0.850731 3.814918,-2.552192 1.038956,-1.702828 1.558434,-3.747591 1.558434,-6.139757 0,-2.64383 -0.556004,-4.68996 -1.665306,-6.13839 -1.290578,-1.701461 -3.314379,-2.553559 -6.072753,-2.553559 H 43.203265 V 18.576562 L 50.724876,5.4299036 H 41.644831 L 41.128058,6.3189307 30.085089,43.997264 H 29.548025 L 21.487997,16.728753 13.429321,43.997264 H 12.892257 L 0,0 H 5.6412079 L 13.432027,26.78023 18.697154,8.7466584 16.118703,0 Z" />
      <path
         id="path100"
         d="M 87.988158,0 C 86.910526,0 85.943421,0.38822175 85.210526,1.1330811 84.432895,1.9226846 84,2.9439053 84,3.999342 84,5.0547787 84.411842,6.0325711 85.167105,6.7998026 85.934211,7.5775621 86.922368,8 87.989474,8 89.032895,8 90.044737,7.5775621 90.832895,6.8116466 91.588158,6.0786313 92,5.1008389 92,4.000658 92,2.9333772 91.577632,1.9345287 90.844737,1.1896693 90.076316,0.41059385 89.076316,0 87.988158,0 Z m 3.477631,4.0335581 c 0,0.9225202 -0.356578,1.777924 -1.010526,2.4109229 C 89.76579,7.111696 88.910526,7.4670176 87.965789,7.4670176 87.077632,7.4670176 86.2,7.101168 85.544737,6.4339529 84.889474,5.766738 84.522368,4.9113341 84.522368,4.000658 c 0,-0.9106761 0.377632,-1.8002961 1.055264,-2.4885672 0.632894,-0.6448429 1.488157,-0.98832044 2.421052,-0.98832044 0.955263,0 1.810526,0.3566376 2.477632,1.03306464 0.644737,0.6435269 0.989473,1.5094588 0.989473,2.4767231 z M 88.098684,1.6555355 h -1.710526 v 4.5336404 h 0.855263 V 4.2559632 h 0.844737 l 0.922368,1.9332127 h 0.955263 L 88.953947,4.1230466 C 89.609211,3.988814 89.986842,3.54532 89.986842,2.9004771 c 0,-0.8225037 -0.621052,-1.2449416 -1.888158,-1.2449416 z M 87.943421,2.21089 c 0.8,0 1.165789,0.222405 1.165789,0.7777595 0,0.5329824 -0.365789,0.7224872 -1.144736,0.7224872 H 87.242105 V 2.21089 Z" />
      <path
         id="path102"
         d="M 82.137124,0 83,5.91408 l -3.051978,6.588 c 0,0 -1.171776,-2.79504 -3.118353,-4.3416 -1.640231,-1.3032 -2.708615,-1.58688 -4.37948,-1.19808 -2.145703,0.49968 -4.578605,3.39408 -5.640607,6.9624 -1.270062,4.2696 -1.282826,6.336 -1.327502,8.23392 C 65.410599,25.20144 65.835655,27 65.835655,27 c 0,0 -1.853397,-3.86784 -1.835527,-9.5328 0.01149,-4.04352 0.575677,-7.70976 2.233778,-11.32848 1.458975,-3.18096 3.627654,-5.0904 5.552532,-5.31504 1.989976,-0.23184 3.562556,0.8496 4.777731,2.02032 1.276444,1.22976 2.565652,3.91824 2.565652,3.91824 z" />
      <path
         id="path104"
         d="m 82.230101,31.823621 c 0,0 -1.338458,2.567361 -2.171671,3.556793 -0.834479,0.989433 -2.326158,2.731813 -4.168596,3.603004 -1.842439,0.87119 -2.808611,1.035642 -4.629523,0.848085 -1.819645,-0.187558 -3.51013,-1.318338 -4.10275,-1.789949 C 66.564942,37.569942 65.05047,36.180931 64.194464,34.885698 63.338459,33.590465 62,31 62,31 c 0,0 0.745839,2.595902 1.213097,3.698141 0.268451,0.634705 1.094066,2.574156 2.265376,4.262172 1.0928,1.575209 3.215087,4.286635 6.440304,4.898235 3.225217,0.612959 5.441208,-0.941864 5.989508,-1.318337 0.5483,-0.376474 1.704414,-1.416194 2.436324,-2.256124 0.763568,-0.876627 1.486614,-1.995175 1.886759,-2.666576 C 82.523878,37.128231 83,36.133362 83,36.133362 Z" />
    </g>
  </g>
</svg>
